X:1
T:Queenswood, CMD
T:Queenswood, CMD
T:Sidney Hann, 1919
T:Public Domain Courtesy of the Cyber Hymnal™
C:Sidney Hann, 1919
Z:Public Domain
Z:Courtesy of the Cyber Hymnal™
%%score ( 1 2 ) ( 3 4 )
L:1/8
Q:1/4=108
M:4/4
K:G
V:1 treble 
V:2 treble 
V:3 bass 
V:4 bass 
V:1
 [B,E]2 | [B,E]2 [CF]2 [DG]3 [CF] | [B,E]2 [A,C]2 [B,E]2 [DF]2 | [DG]2 [EA]2 [FB]3 [EA] | %4
 d6 [Ad]2 | [^Ge]3 [Gd] [Gc]2 [GB]2 | [Ac]3 [^GB] [EA]2 [E=G]2 | [EF]2 [EF]2 [EG]3 [EF] | %8
 [^DB]6 [DB]2 | [B,E]2 [^CF]2 [^D^G]3 [CF] | [B,E]2 [A,^C]2 [B,E]2 [^DF]2 | %11
 [E^G]2 [G^A]2 [GB]3 [^^FA] | [^GB]6 [F^d]2 | [Ee]3 [F^d] ^c2 [^GB]2 | [FA]3 [^E^G] F2 [E^^F]2 | %15
 [E^G]2 [=D^c]2 [^CA]3 [B,^D] | [B,E]6 |] %17
V:2
 x2 | x8 | x8 | x8 | (D2 F2 G2) x2 | x8 | x8 | x8 | x8 | x8 | x8 | x8 | x8 | x4 (EF) x2 | %14
 x4 ^^F2 x2 | x8 | x6 |] %17
V:3
 [E,G,]2 | [E,G,]2 [E,A,]2 [E,B,]3 [E,A,] | [E,G,]2 [E,F,]2 [E,G,]2 [D,C]2 | %3
 [G,B,]2 [G,C]2 [G,D]3 [G,C] | (B,2 A,2 B,2) [=F,B,]2 | [E,B,]3 [E,=F] [E,E]2 [E,D]2 | %6
 [A,,C]3 [B,,D] [C,C]2 [C,B,]2 | [^C,^A,]2 [C,A,]2 [=C,A,]3 [C,A,] | [B,,B,]6 [B,,A,]2 | %9
 [E,^G,]2 [E,A,]2 [E,B,]3 [E,A,] | [E,^G,]2 [E,F,]2 [E,G,]2 [B,,B,]2 | %11
 [E,B,]2 [^C,E]2 [^D,^D]3 [D,D] | [^G,^D]6 [A,B,]2 | [^G,B,]3 [G,^B,] [A,^C]2 [^E,=D]2 | %14
 [F,^C]3 [F,B,] [F,A,]2 [^C,^A,]2 | [B,,B,]2 [B,,^E,]2 [B,,F,]3 [B,,A,] | [E,^G,]6 |] %17
V:4
 x2 | x8 | x8 | x8 | G,6 x2 | x8 | x8 | x8 | x8 | x8 | x8 | x8 | x8 | x8 | x8 | x8 | x6 |] %17

